X:1
T:Title
%%score { ( 1 3 ) | ( 2 4 ) }
L:1/8
M:4/4
K:Bb
V:1 treble nm="Grand Piano"
V:3 treble 
V:2 bass 
V:4 bass 
V:1
 z4 z[Q:1/4=94] F =E>F | B6 z2 |[M:11/16] A/-A/-A/-A/-A/-A/-A/-A-<A |[M:5/16] E<DE/ | %4
[M:4/4] A6 z2 |[M:11/16][K:bass] D/-D/-D/-D/-D/-D/-D/-D-<D |[M:5/16][K:treble] F<=EF/ | %7
[M:4/4] d6 z2 |[M:11/16] G/-G/-G/-G/-G/-G/-G/-G-<G |[M:5/16] B/AG |[M:4/4] F4 z4 | %11
[M:5/8] [DB]-[DB]- [DB]3 |[M:3/8] BA>B |[M:4/4] c6 z2 |[M:11/16] B/-B/-B/-B/-B/-B/-B/-B-<B | %15
[M:5/16] B/BB |[M:4/4] B4 [=EB]2 z2 |[M:5/8] c-c- c3 |[M:3/8] F=E>F |[M:4/4] d6 z2 | %20
[M:11/16] G/-G/-G/-G/-G/-G/-G/-G-<G |[M:5/16] [GB]/[FA]G |[M:17/16] F.B z/ z/ z/ z c/-c/-c-<cc | %23
[M:11/16] [B,DB]/-[B,DB]/-[B,DB]/-[B,DB]/-[B,DB]/-[B,DB]/-[B,DB]/-[B,DB]-<[B,DB] |] %24
V:2
 z4 z D _D>=D | D6 z2 |[M:11/16] E/-E/-E/-E/-E/-E/-E/-E-<E |[M:5/16] C<=B,C/ |[M:4/4] E6 z2 | %5
[M:11/16] B,/-B,/-B,/-B,/-B,/-B,/-B,/-B,-<B, |[M:5/16][K:treble] D<_D=D/ |[M:4/4] F6[K:bass] z2 | %8
[M:11/16] E/-E/-E/-E/-E/-E/-E/-E-<E |[M:5/16][K:treble] G/FE |[M:4/4] D4[K:bass] z4 | %11
[M:5/8] B,,D,F, B,,2 |[M:3/8][K:treble] DC>D |[M:4/4] E6[K:bass] z2[K:treble] | %14
[M:11/16] D/-D/-D/-D/-D/-D/-D/-D-<D |[M:5/16] D/DD |[M:4/4] =E4[K:bass] z4 |[M:5/8] E-E- E3 | %18
[M:3/8][K:treble] D_D>=D |[M:4/4] F6[K:bass] z2 |[M:11/16] E/-E/-E/-E/-E/-E/-E/-E-<E | %21
[M:5/16] [E,E]/[E,E][E,B,E] | %22
[M:17/16] [F,B,D].[F,B,D] z/ z/ z/ z [F,A,E]/-[F,A,E]/-[F,A,E]-<[F,A,E][F,A,E] | %23
[M:11/16] B,,-<B,,F,B,,/-B,,-<B,, |] %24
V:3
 x8 | z B, B,>B, B,>F =E>F |[M:11/16] z CC>CC3/2 |[M:5/16] x5/2 |[M:4/4] z C C>C C>G FE | %5
[M:11/16][K:bass] z F,F,>F,F,3/2 |[M:5/16][K:treble] x5/2 |[M:4/4] z B, B,>B, B,>B c>B | %8
[M:11/16] z B,B,B,B,3/2 |[M:5/16] x5/2 |[M:4/4] z B,B,B, =E>F GA |[M:5/8] B,2 B, B,2 |[M:3/8] x3 | %13
[M:4/4] z C C>C C>c BA |[M:11/16] z B,B,B,B,3/2 |[M:5/16] x5/2 |[M:4/4] z CCC C<C A>B | %17
[M:5/8] z z/ B,/ A,3 |[M:3/8] x3 |[M:4/4] z B, B,>B, B,>B c>B |[M:11/16] z B,B,B,B,3/2 | %21
[M:5/16] x5/2 |[M:17/16] x17/2 |[M:11/16] x11/2 |] %24
V:4
 x8 | z B,, D,>F, z z/ D/ _D>=D |[M:11/16] z F,F,>F,F,3/2 |[M:5/16] x5/2 | %4
[M:4/4] z F, F,>F, F,>E DC |[M:11/16] z B,,B,,>B,,B,,3/2 |[M:5/16][K:treble] x5/2 | %7
[M:4/4] z[K:bass] B,, D,>F, z z/ D/ E>D |[M:11/16] z E,E,E,E,3/2 |[M:5/16][K:treble] x5/2 | %10
[M:4/4] z[K:bass] F,F,F, [F,B,_D]>[F,B,=D] [F,CE][F,CE] |[M:5/8] x5 |[M:3/8][K:treble] x3 | %13
[M:4/4] z A,[K:bass] A,>A, A,>E D[K:treble]C |[M:11/16] z G,G,G,G,3/2 |[M:5/16] x5/2 | %16
[M:4/4] z[K:bass] G,G,G, G,<G, [G,C=E]>[G,CE] |[M:5/8] [A,C]>G, F,3 |[M:3/8][K:treble] x3 | %19
[M:4/4] z[K:bass] B,, D,>F, z z/ D/ E>D |[M:11/16] z E,E,E,E,3/2 |[M:5/16] x5/2 |[M:17/16] x17/2 | %23
[M:11/16] x11/2 |] %24

